X: 3
T: The Hunter's House
R: reel
M: 4/4
L: 1/8
K: Gmaj
|: B2dB cAFA | G2BG DGBG | B2dB cAFA |GBAG FD3 |
DG3 BGFG | BGAF GABc |defg agfd |1 cAFA G2GA :|2 cAFA G2Bc ||
|: d2gB aBgB | B2gf edcB | Aa3 ba3 | A2ag fedc |
B2gB aBgB | B2gf edcB | cBAg fgaf | gdBd cAFA :|


Tune 472	Setting 29136

